icons/src/scalable/default/status/dialog-password-symbolic.svg

<?xml version="1.0" encoding="UTF-8" standalone="no"?>
<svg
   height="16"
   width="16"
   version="1.1"
   id="svg4"
   sodipodi:docname="dialog-password-symbolic.svg"
   inkscape:version="1.2 (1:1.2.1+202207142221+cd75a1ee6d)"
   xmlns:inkscape="http://www.inkscape.org/namespaces/inkscape"
   xmlns:sodipodi="http://sodipodi.sourceforge.net/DTD/sodipodi-0.dtd"
   xmlns="http://www.w3.org/2000/svg"
   xmlns:svg="http://www.w3.org/2000/svg">
  <defs
     id="defs8" />
  <sodipodi:namedview
     id="namedview6"
     pagecolor="#ffffff"
     bordercolor="#666666"
     borderopacity="1.0"
     inkscape:showpageshadow="2"
     inkscape:pageopacity="0.0"
     inkscape:pagecheckerboard="0"
     inkscape:deskcolor="#d1d1d1"
     showgrid="true"
     inkscape:zoom="29.5"
     inkscape:cx="2.779661"
     inkscape:cy="11.254237"
     inkscape:window-width="1920"
     inkscape:window-height="1043"
     inkscape:window-x="0"
     inkscape:window-y="0"
     inkscape:window-maximized="1"
     inkscape:current-layer="svg4">
    <inkscape:grid
       type="xygrid"
       id="grid237" />
  </sodipodi:namedview>
  <path
     id="path569"
     style="line-height:normal;font-variant-ligatures:normal;font-variant-position:normal;font-variant-caps:normal;font-variant-numeric:normal;font-variant-alternates:normal;font-feature-settings:normal;text-indent:0;text-align:start;text-decoration-line:none;text-decoration-style:solid;text-decoration-color:#000000;text-transform:none;text-orientation:mixed;shape-padding:0;isolation:auto;mix-blend-mode:normal;marker:none;fill:#808080;stroke:none"
     d="M 4 4 A 4 4 0 0 0 0 8 A 4 4 0 0 0 4 12 A 4 4 0 0 0 7.4550781 10 L 9.9375 9.9941406 L 10.5 9.5 L 11 10 L 11.5 9.5 L 12 10 L 12.5 9.5 L 13.5 10.5 L 16 8 L 14 6 L 7.4648438 6.0039062 A 4 4 0 0 0 4 4 z M 4 5 A 3 3 0 0 1 7 8 A 3 3 0 0 1 4 11 A 3 3 0 0 1 1 8 A 3 3 0 0 1 4 5 z M 3 7 A 1 1 0 0 0 2 8 A 1 1 0 0 0 3 9 A 1 1 0 0 0 4 8 A 1 1 0 0 0 3 7 z M 13.585938 7 L 14.585938 8 L 13.5 9.0859375 L 12.5 8.0859375 L 12 8.5859375 L 11.5 8.0859375 L 11 8.5859375 L 10.544922 8.1308594 L 9.5605469 8.9941406 L 7.8652344 8.9980469 A 4 4 0 0 0 8 8 A 4 4 0 0 0 7.875 7.0039062 L 13.585938 7 z " />
</svg>

<svg height="16" width="16" xmlns="http://www.w3.org/2000/svg">
    <path d="M2.445 3c-.52 0-.94.048-1.304.191-.364.144-.662.41-.832.735C-.031 4.574.01 5.328 0 6.357v3.286c.012 1.029-.031 1.784.309 2.431.17.324.468.591.832.735.364.143.784.191 1.304.191h3.112c.52 0 .94-.048 1.304-.191.364-.144.66-.41.83-.735.296-.563.297-1.241.301-2.076l1.946-.004.562-.494.5.5.5-.5.5.5.5-.5 1 1L16 8l-2-2-6.008.002c0-.835-.01-1.513-.3-2.076a1.607 1.607 0 0 0-.833-.734C6.496 3.048 6.077 3 5.557 3zm0 1h3.112c.451 0 .756.052.935.123.18.07.244.134.315.268.14.268.182.944.193 1.978v.633L13.586 7l1 1L13.5 9.086l-1-1-.5.5-.5-.5-.5.5-.455-.455-.984.863L7 9v.63c-.011 1.035-.053 1.711-.193 1.98-.07.133-.135.196-.315.267-.18.07-.484.123-.935.123H2.445c-.451 0-.758-.052-.937-.123-.18-.071-.242-.134-.313-.268-.14-.267-.183-.943-.195-1.972V6.363c.012-1.029.055-1.705.195-1.973.07-.134.133-.196.313-.267.18-.071.486-.123.937-.123zM3 7a1 1 0 0 0-1 1 1 1 0 0 0 1 1 1 1 0 0 0 1-1 1 1 0 0 0-1-1z" style="line-height:normal;font-variant-ligatures:normal;font-variant-position:normal;font-variant-caps:normal;font-variant-numeric:normal;font-variant-alternates:normal;font-feature-settings:normal;text-indent:0;text-align:start;text-decoration-line:none;text-decoration-style:solid;text-decoration-color:#000;text-transform:none;text-orientation:mixed;shape-padding:0;isolation:auto;mix-blend-mode:normal;marker:none" color="#000" font-weight="400" font-family="sans-serif" white-space="normal" overflow="visible" fill="gray"/>
</svg>
